X: 19761
T: Jenny's Chickens
R: reel
M: 4/4
K: Bminor
f3e fece|f3a eAce|f3a fece|f2 af eAce|
f3a fece|f3c e2ce|f3a fece|fgaf eAce||
fBBA B3e|fB B2 ABce|fBBA B3e|fgaf eAce|
fB B2 fBdB|fB B2 ABce|fBBA B3e|fgaf eAcA||
B2 b2 a2 g2|fgaf eAce|B2 b2 a2 g2|fgaf eAcA|
B2 b2 a2 g2|fgaf eAce|fa a2 fece|fgaf eAce||

